X: 20752
Q: "Moderate."
M: 6/8
L: 1/8
K: G
d |\
d>ed gdc | B>cd G2(G/F/) | E>FG Ace | G>FG {B}A2A |\
d |\
b>ag a>gf | g>fe d2(c/B/) | c>de E<cA | G>FG {B}A2d |\
dBd g>ab | efg HgHf d/d/ | g>fe {d}d{c}B{A}G | B>cA G2 |]


